X: 022138
T: Bee Park (The)
Z: BB
S: "The Leitrim Fiddler" (Dublin 1981)
L: 1/8
M: 4/4
R: reel
Q: 1/4 = 180
K: Dm
C | A,DDE FEFG | AcGc Fdde | fdec dcAc | dcAG FGEF |
D3E F3G | cAGc Adde | fdec dcAG | F2 EF D3 :|
c | d3c Adad | c2 gc acgc | dedc Aceg | abag eddc |
d2 ad bdad | c2 gc acgc | fgef dcAG | F2 EF D3 :|
